X: 3
T: The Rakes Of Kildare
R: jig
M: 6/8
L: 1/8
K: Ador
EAA AGA|BcB BAG|EAA AGA|GFD GFD|
EAA AGA|BcB Bcd|e=fe edB|1BAG A2G:|2BAG A2e||
eaa age|aea b2a|egg gfd|BcB Bcd|
eaa age|aea b2a|e=fe edB|1BAG A2e:|2BAG A2G||


Tune 84	Setting 12589

